local/share/icons/dracula-icons-main/24/devices/drive-harddisk.svg

<?xml version="1.0" encoding="UTF-8"?>
<svg xmlns="http://www.w3.org/2000/svg" xmlns:xlink="http://www.w3.org/1999/xlink" width="24" height="24" viewBox="0 0 24 24">
<path fill-rule="nonzero" fill="rgb(44.705882%, 44.705882%, 44.705882%)" fill-opacity="1" d="M 7 5 C 6 5 6 6 6 6 L 6 18 C 6 18 6 19 7 19 L 17 19 C 17 19 18 19 18 18 L 18 6 C 18 6 18 5 17 5 Z M 12 7 C 14.210938 7 16 8.789062 16 11 C 16 13.210938 14.210938 15 12 15 L 8 15 L 8 11 C 8 8.789062 9.789062 7 12 7 Z M 12 9 C 10.894531 9 10 9.894531 10 11 C 10 12.105469 10.894531 13 12 13 C 13.105469 13 14 12.105469 14 11 C 14 9.894531 13.105469 9 12 9 Z M 12 9 "/>
</svg>

<svg width="24" height="24" version="1.1" viewBox="0 0 24 24" xmlns="http://www.w3.org/2000/svg">
 <defs>
  <style id="current-color-scheme" type="text/css">.ColorScheme-Text { color:#727272; } .ColorScheme-Highlight { color:#5294e2; }</style>
 </defs>
 <path class="ColorScheme-Text" d="m7 5c-1 0-1 1-1 1v12s0 1 1 1h10s1 0 1-1v-12s0-1-1-1zm5 2c2.209 0 4 1.7909 4 4s-1.791 4-4 4h-4v-4c0-2.2091 1.7909-4 4-4zm0 2c-1.1046 0-2 0.8954-2 2s0.8954 2 2 2 2-0.8954 2-2-0.8954-2-2-2z" color="#727272" fill="currentColor"/>
</svg>
